www/assets/icons/media_bluetooth_off.svg

<svg width="24" height="24" viewBox="0 0 24 24" xmlns="http://www.w3.org/2000/svg" fill='currentColor'><path d="M9.30495 5.46498V2.29498H15.3049V6.29498H11.3049V7.46498L9.30495 5.46498ZM19.7249 14.295L22.3049 16.865L21.5049 17.665L14.7249 10.885L15.5249 10.085L18.2749 12.835V8.29498H18.8749L22.3049 11.725L19.7249 14.295ZM19.4749 12.845L20.6049 11.715L19.4749 10.585V12.845ZM21.4949 20.485L20.0849 21.895L16.1049 17.915L15.5249 18.495L14.6749 17.645L15.2549 17.065L11.3049 13.125V16.295C11.3049 18.505 9.52495 20.295 7.31495 20.295C5.10495 20.295 3.30495 18.505 3.30495 16.295C3.30495 14.085 5.09495 12.295 7.31495 12.295C8.04495 12.295 8.72495 12.505 9.31495 12.845V11.125L1.69495 3.51498L3.10495 2.10498L21.4949 20.485Z"/></svg>

<svg xmlns="http://www.w3.org/2000/svg" width="24" height="24" viewBox="0 0 24 24" fill='currentColor'><path d="M9.305 5.465v-3.17h6v4h-4v1.17zm10.42 8.83 2.58 2.57-.8.8-6.78-6.78.8-.8 2.75 2.75v-4.54h.6l3.43 3.43zm-.25-1.45 1.13-1.13-1.13-1.13zm2.02 7.64-1.41 1.41-3.98-3.98-.58.58-.85-.85.58-.58-3.95-3.94v3.17c0 2.21-1.78 4-3.99 4s-4.01-1.79-4.01-4 1.79-4 4.01-4c.73 0 1.41.21 2 .55v-1.72l-7.62-7.61 1.41-1.41z"/></svg>
